Yaru++/status/16/nm-signal-0.svg

<svg height="16" width="16" xmlns="http://www.w3.org/2000/svg">
  <path d="m8 3.0355074c-2.853422 0-5.468321 1.09634-7.5 2.9227766l1.2959168 1.459363c1.8117159-1.588448 3.7176605-2.382141 6.2040832-2.382141 2.486423 0 4.334381.747499 6.23286 2.414286l1.26714-1.491508c-2.031679-1.8264366-4.646579-2.9227766-7.5-2.9227766zm0 3.9999986c-1.847888 0-3.5041267.736481-4.8649357 1.861156l1.3245282 1.41372c.90637-.649172 2.3168195-1.274876 3.4869315-1.274876 1.198417 0 2.676027.639835 3.595257 1.318069l1.364636-1.477654c-1.360809-1.124675-3.058529-1.840415-4.906417-1.840415zm0 4c-.883784 0-1.758278.463138-2.1184755.860829l2.1184755 2.303665 2.139037-2.283103c-.360197-.418253-1.255253-.881391-2.139037-.881391z" fill="#333" opacity=".4"/>
</svg>

<svg xmlns="http://www.w3.org/2000/svg" width="16" height="16" version="1.0">
 <path d="m 8,3.0355074 c -2.853422,0 -5.468321,1.09634 -7.5,2.9227766 L 1.7959168,7.417647 C 3.6076327,5.829199 5.5135773,5.035506 8,5.035506 c 2.486423,0 4.334381,0.747499 6.23286,2.414286 L 15.5,5.958284 C 13.468321,4.1318474 10.853421,3.0355074 8,3.0355074 z M 8,7.035506 c -1.847888,0 -3.5041267,0.736481 -4.8649357,1.861156 l 1.3245282,1.41372 C 5.3659625,9.66121 6.776412,9.035506 7.946524,9.035506 c 1.198417,0 2.676027,0.639835 3.595257,1.318069 L 12.906417,8.875921 C 11.545608,7.751246 9.847888,7.035506 8,7.035506 z m 0,4 c -0.883784,0 -1.758278,0.463138 -2.1184755,0.860829 L 8,14.2 10.139037,11.916897 C 9.77884,11.498644 8.883784,11.035506 8,11.035506 z" style="opacity:0.4;fill:#333333"/>
</svg>
